udata_front/theme/gouvfr/templates/svg/certified.svg

<svg fill="none" height="16" viewBox="0 0 16 16" width="16" xmlns="http://www.w3.org/2000/svg"><path d="m15.3326 7.65352c0 4.04388-3.3565 7.32198-7.49663 7.32198-4.1406 0-7.497103-3.2781-7.497103-7.32198 0-4.04341 3.356503-7.321489 7.497103-7.321489 4.14013 0 7.49663 3.278079 7.49663 7.321939z" fill="#fff"/><path d="m0 7.65332c0-4.21985 3.51516-7.65332 7.83643-7.65332s7.83647 3.43347 7.83647 7.65332c0 4.21988-3.5152 7.65328-7.83647 7.65328s-7.83643-3.4334-7.83643-7.65328zm.679554 0c0 3.85438 3.210686 6.99008 7.156876 6.99008 3.94617 0 7.15687-3.1357 7.15687-6.99053 0-3.85398-3.2107-6.989642-7.15687-6.989642-3.94619 0-7.156876 3.135662-7.156876 6.990092z" fill="#3558a2"/><path d="m13.8912 7.65376c0 3.26594-2.7104 5.91394-6.05449 5.91394-3.34458 0-6.05546-2.648-6.05546-5.91394 0-3.26599 2.71088-5.91353 6.05546-5.91353 3.34409 0 6.05499 2.64754 6.05499 5.91353z" fill="#3558a2"/><g fill="#fff"><path d="m7.18271 10.4824c-.17287 0-.34666-.064-.47872-.193l-2.22941-2.1657c-.12769-.12406-.19969-.29257-.20016-.46848-.00048-.1759.07062-.34478.19764-.46949.12703-.12471.29957-.19503.47968-.19549.18012-.00047.35304.06897.48073.19303l2.22849 2.16568c.09536.09251.16045.2106.187.33928.02655.12869.01338.26218-.03785.38357-.05123.1213-.13821.2251-.24991.2981-.11169.0731-.24308.112-.37749.112z"/><path d="m7.18125 10.4814c-.12008-.0002-.23796-.0315-.34164-.0907s-.18945-.1441-.24858-.2462-.08951-.21762-.08805-.33489.03472-.23206.09638-.3327l3.05663-4.97532c.04591-.07469.10644-.13981.17813-.19165.07168-.05184.15312-.08939.23968-.11049.0865-.02111.1765-.02536.2647-.01251s.173.04254.2495.08738c.0764.04484.1431.10396.1962.17397s.0915.14954.1131.23406c.0217.08452.026.17237.0128.25853-.0131.08617-.0435.16896-.0894.24364l-3.05619 4.97488c-.06023.0983-.14556.1796-.24764.2361-.10208.0564-.21832.086-.33562.0859z"/></g></svg>

<svg width="16" height="16" viewBox="0 0 16 16" fill="none" xmlns="http://www.w3.org/2000/svg">
<path d="M15.3326 7.65352C15.3326 11.6974 11.9761 14.9755 7.83597 14.9755C3.69537 14.9755 0.338867 11.6974 0.338867 7.65352C0.338867 3.61011 3.69537 0.332031 7.83597 0.332031C11.9761 0.332031 15.3326 3.61011 15.3326 7.65397V7.65352Z" fill="white"/>
<path d="M0 7.65332C0 3.43347 3.51516 0 7.83643 0C12.1577 0 15.6729 3.43347 15.6729 7.65332C15.6729 11.8732 12.1577 15.3066 7.83643 15.3066C3.51516 15.3066 0 11.8732 0 7.65332ZM0.679554 7.65332C0.679554 11.5077 3.89024 14.6434 7.83643 14.6434C11.7826 14.6434 14.9933 11.5077 14.9933 7.65287C14.9933 3.79889 11.7826 0.663228 7.83643 0.663228C3.89024 0.663228 0.679554 3.79889 0.679554 7.65332Z" fill="#3558a2"/>
<path d="M13.8912 7.65376C13.8912 10.9197 11.1808 13.5677 7.83671 13.5677C4.49213 13.5677 1.78125 10.9197 1.78125 7.65376C1.78125 4.38777 4.49213 1.74023 7.83671 1.74023C11.1808 1.74023 13.8917 4.38777 13.8917 7.65376H13.8912Z" fill="#3558a2"/>
<path d="M7.18271 10.4824C7.00984 10.4824 6.83605 10.4184 6.70399 10.2894L4.47458 8.1237C4.34689 7.99964 4.27489 7.83113 4.27442 7.65522C4.27394 7.47932 4.34504 7.31044 4.47206 7.18573C4.59909 7.06102 4.77163 6.9907 4.95174 6.99024C5.13186 6.98977 5.30478 7.05921 5.43247 7.18327L7.66096 9.34895C7.75632 9.44146 7.82141 9.55955 7.84796 9.68823C7.87451 9.81692 7.86134 9.95041 7.81011 10.0718C7.75888 10.1931 7.6719 10.2969 7.5602 10.3699C7.44851 10.443 7.31712 10.4819 7.18271 10.4819V10.4824Z" fill="white"/>
<path d="M7.18125 10.4814C7.06117 10.4812 6.94329 10.4499 6.83961 10.3907C6.73593 10.3315 6.65016 10.2466 6.59103 10.1445C6.5319 10.0424 6.50152 9.92688 6.50298 9.80961C6.50444 9.69234 6.5377 9.57755 6.59936 9.47691L9.65599 4.50159C9.7019 4.4269 9.76243 4.36178 9.83412 4.30994C9.9058 4.2581 9.98724 4.22055 10.0738 4.19945C10.1603 4.17834 10.2503 4.17409 10.3385 4.18694C10.4267 4.19979 10.5115 4.22948 10.588 4.27432C10.6644 4.31916 10.7311 4.37828 10.7842 4.44829C10.8373 4.5183 10.8757 4.59783 10.8973 4.68235C10.919 4.76687 10.9233 4.85472 10.9101 4.94088C10.897 5.02705 10.8666 5.10984 10.8207 5.18452L7.76451 10.1594C7.70428 10.2577 7.61895 10.339 7.51687 10.3955C7.41479 10.4519 7.29855 10.4815 7.18125 10.4814Z" fill="white"/>
</svg>
